X: 76
T:Polly's Fancy. JBi.75
M:9/8
Q:120
S:James Biggins MS,Leeds,1779
R:Slip Jig
O:England
A:Yorkshire
Z:vmp.Chris Partington
K:F
f2d cAF cAF|f2d cAF B2G|f2d cAF cAF|GAB AGF EDC||!
f2a afa afa|f2a afa gec|f2a afa afa|gac' agf edc||
